public/img/sad.svg

<svg width="65" height="65" viewBox="0 0 65 65" fill="none" xmlns="http://www.w3.org/2000/svg">
<path d="M64 32.5C64 49.897 49.897 64 32.5 64C15.103 64 1 49.897 1 32.5C1 15.103 15.103 1 32.5 1C49.897 1 64 15.103 64 32.5Z" stroke="#234cad" stroke-width="2"/>
<path fill-rule="evenodd" clip-rule="evenodd" d="M43.3812 24.5839C43.3812 21.4505 41.4529 19 39.2033 19C36.9135 19 35.0254 21.4505 35.0254 24.5839C35.0254 27.637 36.9135 30.1679 39.2033 30.1679C41.4529 30.208 43.3812 27.637 43.3812 24.5839Z" fill="#234cad"/>
<path fill-rule="evenodd" clip-rule="evenodd" d="M29.3209 23.1779C29.3209 20.8881 27.8747 19 26.1874 19C24.46 19 23.054 20.8881 23.054 23.1779C23.054 25.4677 24.46 27.3558 26.1874 27.3558C27.8747 27.3558 29.3209 25.4677 29.3209 23.1779Z" fill="#234cad"/>
<path fill-rule="evenodd" clip-rule="evenodd" d="M34.7442 40.4519C27.0311 33.6227 19.9206 40.1707 19.6394 40.5323C18.9565 41.2152 18.7958 42.4204 19.2779 43.3845C19.7599 44.3486 20.8044 44.6298 21.4472 43.9469C21.648 43.6657 27.1516 38.7245 32.9364 43.9469C35.5074 46.2367 37.8776 47 40.0469 47C43.1803 47 45.6308 45.2726 46.8762 43.7862C47.5591 43.023 47.6394 41.6973 47.077 40.8537C46.5146 40.01 45.4701 39.8895 44.7872 40.6528C44.7069 40.8135 40.4084 45.5538 34.7442 40.4519Z" fill="#234cad"/>
</svg>

<svg width="65" height="65" fill="none" xmlns="http://www.w3.org/2000/svg"><path d="M64 32.5C64 49.897 49.897 64 32.5 64S1 49.897 1 32.5 15.103 1 32.5 1 64 15.103 64 32.5z" stroke="#234cad" stroke-width="2"/><path fill-rule="evenodd" clip-rule="evenodd" d="M43.381 24.584c0-3.133-1.928-5.584-4.178-5.584-2.29 0-4.178 2.45-4.178 5.584 0 3.053 1.889 5.584 4.178 5.584 2.25.04 4.178-2.531 4.178-5.584zM29.32 23.178c0-2.29-1.445-4.178-3.133-4.178-1.727 0-3.133 1.888-3.133 4.178s1.406 4.178 3.133 4.178c1.688 0 3.134-1.888 3.134-4.178zM34.744 40.452c-7.713-6.83-14.823-.281-15.105.08-.683.683-.843 1.888-.361 2.853.482.964 1.526 1.245 2.17.562.2-.281 5.704-5.223 11.488 0 2.571 2.29 4.942 3.053 7.11 3.053 3.134 0 5.585-1.727 6.83-3.214.683-.763.763-2.089.201-2.932-.562-.844-1.607-.965-2.29-.201-.08.16-4.379 4.9-10.043-.201z" fill="#234cad"/></svg>
